X:611
T: Zhouzongli shicha gongshelai
N: C2129
O: China,Hubei Macheng
S: I, 363]
R: Xiaodiao, Daochunlai diao]
M: 2/4
L: 1/16
K: C
A2e2dedc | deA6 | A2e2dedc | Acd6 |
cAc4d2 | g2ede4 | A2e2dedc | Acd6 |
e3de4 | d2e2g2e2 | d3e
dedc | AcG4A2 | c2e2AGAc | G8

@@@ Tune index: 7166
